src/images/crypto-icon-svg/qiwi.svg

<svg xmlns="http://www.w3.org/2000/svg" width="32" height="32" viewBox="0 0 32 32">
  <g fill="none">
    <circle cx="16" cy="16" r="16" fill="#FF8C00"/>
    <path fill="#FFF" d="M22.5900662,19.4450016 C22.640969,19.8460211 22.526931,20.0011248 22.3998713,20.0011248 C22.2728116,20.0011248 22.0948491,19.8460211 21.9046542,19.5358137 C21.7140646,19.2252044 21.6379077,18.8764219 21.7397133,18.6951997 C21.8028486,18.578671 21.9425353,18.5272376 22.1078707,18.5919311 C22.4377524,18.7213182 22.5648121,19.2252044 22.5900662,19.4450016 Z M20.8128089,20.3241906 C21.2062204,20.6605166 21.3206531,21.0482759 21.1174365,21.3327666 C21.0030039,21.475012 20.8128089,21.5654222 20.5969653,21.5654222 C20.3811217,21.5654222 20.152651,21.4878704 20.0003372,21.345625 C19.6448068,21.0354175 19.5433958,20.5178694 19.7714719,20.2337804 C19.8606504,20.1172517 20.0003372,20.05296 20.1779051,20.05296 C20.3811217,20.05296 20.6095923,20.1433702 20.8128089,20.3241906 Z M7,14.8943548 C7,9.98166531 10.9104395,6 15.7343672,6 C20.5586895,6 24.4691291,9.98206713 24.4691291,14.8943548 C24.4691291,16.5619207 24.0121877,18.12662 23.2379917,19.4582618 C23.212343,19.4968368 23.1488132,19.4839785 23.1361861,19.4321433 C22.8315585,17.247431 21.5238697,16.0447744 19.6195527,15.6831336 C19.4542173,15.6570151 19.4289632,15.5537465 19.6448068,15.5280298 C20.2288079,15.4761947 21.0539067,15.489053 21.4855939,15.5666049 C21.510848,15.3468076 21.5238697,15.114152 21.5238697,14.8814964 C21.5238697,11.6363729 18.933746,8.99880595 15.7469943,8.99880595 C12.5606371,8.99880595 9.97051351,11.6363729 9.97051351,14.8814964 C9.97051351,18.12662 12.5606371,20.7641869 15.7473889,20.7641869 L16.0137407,20.7641869 C15.9232524,20.2393058 15.8849147,19.7064775 15.8993081,19.173771 C15.9123297,18.8117284 15.9884866,18.7598932 16.1408004,19.044384 C16.9406451,20.4535777 18.0833931,21.720526 20.3175918,22.224814 C22.1457519,22.6386918 23.973912,23.1168613 25.9417588,25.6636162 C26.1193267,25.8834135 25.8529749,26.1160691 25.6497583,25.9352487 C23.6440303,24.1250355 21.8158702,23.5303373 20.152651,23.5303373 C18.2862151,23.5435975 17.016802,23.7891114 15.7343672,23.7891114 C10.910045,23.7891114 7,19.8070443 7,14.8943548 Z"/>
  </g>
</svg>

<svg xmlns="http://www.w3.org/2000/svg" width="32" height="32"><g fill="none"><circle cx="16" cy="16" r="16" fill="#FF8C00"/><path fill="#FFF" d="M22.59 19.445c.051.401-.063.556-.19.556s-.305-.155-.495-.465c-.19-.31-.267-.66-.165-.84.063-.117.203-.169.368-.104.33.13.457.633.482.853zm-1.777.88c.393.336.508.723.304 1.008a.664.664 0 0 1-.52.232.896.896 0 0 1-.597-.22c-.355-.31-.457-.827-.229-1.111a.489.489 0 0 1 .407-.181c.203 0 .432.09.635.271zM7 14.894C7 9.981 10.91 6 15.734 6c4.825 0 8.735 3.982 8.735 8.894a9.074 9.074 0 0 1-1.231 4.564c-.026.039-.09.026-.102-.026-.304-2.185-1.612-3.387-3.516-3.749-.166-.026-.191-.13.025-.155.584-.052 1.409-.039 1.84.039.026-.22.039-.453.039-.686 0-3.245-2.59-5.882-5.777-5.882-3.186 0-5.776 2.637-5.776 5.882 0 3.246 2.59 5.883 5.776 5.883h.267a8.078 8.078 0 0 1-.115-1.59c.013-.362.09-.414.242-.13.8 1.41 1.942 2.677 4.177 3.18 1.828.415 3.656.893 5.624 3.44.177.22-.089.452-.292.271-2.006-1.81-3.834-2.405-5.497-2.405-1.867.014-3.136.26-4.419.26C10.91 23.79 7 19.806 7 14.893z"/></g></svg>
